X: 35231
T: Rosbif
R: waltz
M: 3/4
K: Aminor
AB|:c2AB cA|c2AB cA|B2GA BG|A2A4|c2AB cA|
c2AB cA|BA GA BG|e2e4|e2cd ec|d2d4|c2AB cA|
B2B4|c2AB cA|cB AB cA|BA GA BG|1 A2A2AB:|2 A2A4||
|:eAfAeA|cAcAcA|eAfAeA|dEdEdE|d2dB GB|d2dB GB|d4c2|A6:|
|:c2 B2 c2|d4d2|e2g2f2|e3d c2|a3g f2|e3d c2|1 d4d2|e6:|2 d4c2|A6||

